src/topics/icons/appdynamics.svg

<svg height="256" preserveAspectRatio="xMidYMid" viewBox="0 0 256 256" width="256" xmlns="http://www.w3.org/2000/svg"><path d="m0 0h256v256h-256z" fill="#43af49"/><path d="m185.750633 171.568067c2.000632 3.927441 16.418473 31.862469 17.555364 33.715453h-12.321238l-48.066852-65.51148-15.392318-10.423958-15.392319 10.423958-48.0594694 65.51148h-12.3212373c1.1368907-1.852984 15.5547316-29.788012 17.5479815-33.715453 2.0006323-3.92744 58.2250442-121.477507 58.2250442-121.477507z" fill="#fff"/></svg>

<?xml version="1.0" encoding="UTF-8" standalone="no"?>
<svg width="256px" height="256px" viewBox="0 0 256 256" version="1.1" xmlns="http://www.w3.org/2000/svg" xmlns:xlink="http://www.w3.org/1999/xlink" preserveAspectRatio="xMidYMid">
	<g>
		<rect fill="#43AF49" x="0" y="0" width="256" height="256"></rect>
		<path d="M185.750633,171.568067 C187.751265,175.495508 202.169106,203.430536 203.305997,205.28352 L190.984759,205.28352 L142.917907,139.77204 L127.525589,129.348082 L112.13327,139.77204 L64.0738006,205.28352 L51.7525633,205.28352 C52.889454,203.430536 67.3072949,175.495508 69.3005448,171.568067 C71.3011771,167.640627 127.525589,50.09056 127.525589,50.09056 L185.750633,171.568067" fill="#FFFFFF"></path>
	</g>
</svg>
